!!!!SEGMENT: pl-sa--573-a-ix-53--003_anonim--polonaise.krn
!!!cenid: 18xx:604
!!!COM: Anonim
!!!COM-rismid: pe30004985
!!!CDT:
!!!CNT:
!!!OTL: Polonaise
!!!PDT:
!!!AGN: Secular; Polonaise
!!!SMS-siglum: PL-SA
!!!SMS-shelfmark: 573/A IX 53
!!!SMS-shelfwork: 003 W
!!!SMS-variant:
!!!SMS-altvar:
!!!NIFC-rismid: 1001077293
!!!system-decoration: {(s1,s2)}
!!!AIN: 1 empty 1 piano
!!!key:
**kern	**kern
*part2	*part1
*staff2	*staff1
*Iempty	*Ipiano
*	*I"Piano
*	*I'Pno.
*clefF4	*clefG2
*k[b-]	*k[b-]
*F:	*F:
*M3/4	*M3/4
*>[A,B,B,C,C,D,D,E,D,D,E]	*>[A,B,B,C,C,D,D,E,D,D,E]
=1	=1
*>A	*>A
*	*2\right
!	!LO:TX:a:Bi:t=Polo&colon;:rj
8fL 8F\	8ff\L
8fJ 8F\	8ffT>\J
4.a 4.A\	4.aa\
8f 8F\	8ff\
=2	=2
8c\L	8cc\L
8c\J	8cc\J
4.f\	4.ffT>\
8c\	8cc\
=3	=3
8A\L	8cc\L
8A\J	8cc\J
8.c\L	8.cc\L
16B-\K	16b-\K
8G\	8g\
8E\J	8e\J
=4	=4
8F\L	8f/L
!LO:TUP:a:problem=klamra łukowa	!LO:TUP:b:problem=klamra łukowa
24C\L	24c/L
24D\	24d/
24E\JJ	24e/JJ
8F\L	8f\L
8A\J	8a\J
4F\	4f/
!LO:TX:a:t=[segno]:problem=segno na kresce taktowej	!LO:TX:a:t=[segno]:problem=segno na kresce taktowej
=5||	=5||
*>B	*>B
!	!LO:TX:a:t=P:problem=w źródle znak segno najprawdopodobniej oznacza część utworu przed Trio
4C/	16eeLL 16cc\
.	16ff 16dd\
.	16ee 16cc\
.	16ffJJ 16dd\
8r	8ggL 8ee\
8c\L	8ggJ 8ee\
8C\	8.ggL 8.ee\
8c\J	.
.	16aaJk 16ff\
=6	=6
4FF/	16ff\LL
.	16gg\
.	16ff\
.	16gg\JJ
8r	8aaL 8ff\
!LO:TX:t=P:problem=mixed beam	!
8F\L	8aaJ 8ff\
8FF/	8.aaL 8.ff\
8F\J	.
.	16bb-Jk 16gg\
=7	=7
4FF/	16bbn\LL
.	16ccc\J
.	8cccT>\J
8r	4.aa\
8C/	.
4F\	.
!	!LO:TUP:a:problem=klamra łukowa
.	24cc\LL
.	24dd\
.	24ee\JJ
=8	=8
16F\LL	8ff\L
16c\	.
16A\	16ff\L
16c\JJ	16ee\JJ
*rep	*
16F\LL	8ff\L
16c\	.
16A\	8aa\
16c\JJ	.
*Xrep	*
*rep	*
16F\LL	8.ccc\
16c\	.
16A\	.
16c\JJ	16ee\Jk
*Xrep	*
=9	=9
16D\LL	8dd\L
16A\	.
16F\	16dd\L
16A\JJ	16cc#X\JJ
*rep	*
!	!LO:TX:a:t=P:problem=mixed beam
16D\LL	8dd\L
16A\	.
16F\	8ff\
16A\JJ	.
*Xrep	*
*rep	*
16D\LL	8.aa\
16A\	.
16F\	.
16A\JJ	16a/Jk
*Xrep	*
!!LO:LB:g=original
=10	=10
8r	16b-/LL
.	16a/JJ
8C\L	4g/
8E\	.
8G\	16bb-\LL
.	16gg\JJ
8E\	16ff\LL
.	16ee\
8C\J	16gg\
.	16dd\JJ
=11	=11
4F\	16a\LL
.	16cc\
.	16ff\
.	16ee\JJ
.	8qqgg/
8r	2ff\
8C\	.
4F\	.
=12:|!|:	=12:|!|:
*>C	*>C
8g>\L	8gg\L
8g>\J	8ggT>\J
4.cc>\	4.ccc\
8g>\	8gg\
=13	=13
8e>\L	8ee\L
8e>\J	8eet>\J
8.g>\L	8.gg\L
16f>\Jk	16ff\Jk
8.d>\L	8.dd\L
16Bn>\Jk	16bn\Jk
=14	=14
8r	4.cc\
8c\	.
*tremolo	*
!LO:TX:a:t=P:problem=mixed beam	!
8C/L	.
8c\	16ee\LL
.	16dd\JJ
8C/	16ff\LL
.	16ee\
8c\J	16gg\
.	16ff\JJ
*Xtremolo	*
=15	=15
4C/	16aa\LL
.	16gg\
.	16bb-\
.	16aa\JJ
4c\	16ccc\LL
.	16bb-\
.	16aa\
.	16gg\JJ
4r	16ff\LL
.	16ee\
.	16dd\
.	16cc\JJ
=16	=16
8F\L	8ff\L
8FT>\J	8ffT>\J
8.A\L	8.aa\L
16F\Jk	16ff\Jk
8.D\L	8.dd\L
16F\Jk	16ff\Jk
=17	=17
8BBn\L	8.bn\L
8D\J	.
.	16dd\Jk
8GG\L	8g\L
8BB\J	8b\J
4C\	4cc\
!LO:TX:a:t=[segno]:problem=segno na kresce taktowej	!LO:TX:a:t=[segno]:problem=segno na kresce taktowej
!	!LO:TX:b:Bi:t=Dal Segno
!!LO:LB:g=original
=18||	=18||
*>D	*>D
*k[b-]	*k[b-]
*M3/4	*M3/4
.	8qaa-X/
8r	4ccc\
8c 8A 8F\	.
*rep	*
8c 8A 8F\	16ccc\LL
.	16fff\
8c 8A 8F\	16aa-\
.	16ccc\JJ
8c 8A 8F\	16cc\LL
.	16ff\
8c 8A 8F\	16aa-\
.	16ccc\JJ
*Xrep	*
=19	=19
4r	16ccc\LL
.	16bb-\
.	16aa\
.	16bb-\JJ
*tremolo	*
!LO:TX:a:t=P:problem=w źródle 4 kreski nad tremolo oznaczające tremolo 16-stkowe; w źródle ćwierćnuta przekreślona pojedynczą kreską	!
16c 16B- 16G\LL	4.gg 4.ee\
16c 16B- 16G\	.
16c 16B- 16G\	.
16c 16B- 16G\JJ	.
*Xtremolo	*
4c 4B- 4G\	.
.	8aa 8ff\
=20	=20
.	16qqee/LL
.	16qqgg/JJ
16E\LL	8.bb-\L
16c\	.
16G\	.
16c\JJ	32gg\LL
.	32ee\JJJ
*rep	*
16E\LL	8cc\L
16c\	.
16G\	8cc\J
16c\JJ	.
*Xrep	*
8E\L	16cc\LL
.	16ee\
8D\J	16gg\
.	16ccc\JJ
=21	=21
!	!LO:N:vis=8
4F\	16aa\LL
!	!LO:N:vis=8
.	16ff\JJ
!	!LO:N:vis=8
.	16ee\LL
!	!LO:N:vis=8
.	16gg\JJ
.	8qqgg/
8r	2ff\
8C\	.
4F\	.
=22:|!;>	=22:|!;>
*>E	*>E
8.c\L	8.ccL 8.g 8.e/
16Bn\Jk	16ddJk 16f/
8B-X\L	8eeL 8cc\
8A\	8ffJ 8dd\
8G\	8ggL 8ee\
8F\J	8aaJ 8ff\
=23	=23
8E\L	8bb-L 8gg\
8C\J	8bb-J 8gg\
8r	4.ddd 4.bb-\
!LO:TX:t=P:problem=mixed beam	!
8cL\ 8C/	.
8C/	.
8c\J	8ccc 8aa\
=24	=24
8C/L	8cccL 8ee\
8D/J	8bbnJ 8dd\
8E\L	4.bb-X 4.gg\
8C\J	.
!LO:TX:t=P:problem=mixed beam	!
8F\L	.
8FF/J	8aa 8ff\
!!LO:LB:g=original
=25	=25
*	*Xtuplet
4BB-/	8ff#X\
!	!LO:N:vis=4
.	8gg\
8r	12aa\L
.	12bb-\
8B-\	.
.	12gg\J
!LO:TX:t=P:problem=mixed beam	!
8c\L	8ffn\L
8C/J	8ee\J
!	!LO:TX:a:Bi:t=Da Capo Trio
==	==
*-	*-
!!title: @{OTL};
!!!RDF**kern: > = above
!!!RDF**kern: < = below
!!!EED: Wojciech Jakubiak-Danek
!!!EEV: 2020-12-10
!!!URL-scan: http://bc.bdsandomierz.pl/dlibra/publication/1379/edition/1347/content
!!!ONB-nifc: Str. 3
!!!ENC: Marta Chmielewska
!!!END: 2020-06-19
